svgs/light/square-sliders.svg

<svg xmlns="http://www.w3.org/2000/svg" viewBox="0 0 448 512"><!--! Font Awesome Pro 6.5.1 by @fontawesome - https://fontawesome.com License - https://fontawesome.com/license (Commercial License) Copyright 2023 Fonticons, Inc. --><path d="M32 416c0 17.7 14.3 32 32 32l320 0c17.7 0 32-14.3 32-32l0-320c0-17.7-14.3-32-32-32L64 64C46.3 64 32 78.3 32 96l0 320zM0 96C0 60.7 28.7 32 64 32l320 0c35.3 0 64 28.7 64 64l0 320c0 35.3-28.7 64-64 64L64 480c-35.3 0-64-28.7-64-64L0 96zm96 80c0-8.8 7.2-16 16-16l48 0 0-24c0-8.8 7.2-16 16-16s16 7.2 16 16l0 40 0 40c0 8.8-7.2 16-16 16s-16-7.2-16-16l0-24-48 0c-8.8 0-16-7.2-16-16zm128 0c0-8.8 7.2-16 16-16l96 0c8.8 0 16 7.2 16 16s-7.2 16-16 16l-96 0c-8.8 0-16-7.2-16-16zM96 336c0-8.8 7.2-16 16-16l112 0 0-24c0-8.8 7.2-16 16-16s16 7.2 16 16l0 40 0 40c0 8.8-7.2 16-16 16s-16-7.2-16-16l0-24-112 0c-8.8 0-16-7.2-16-16zm192 0c0-8.8 7.2-16 16-16l32 0c8.8 0 16 7.2 16 16s-7.2 16-16 16l-32 0c-8.8 0-16-7.2-16-16z"/></svg>

<svg xmlns="http://www.w3.org/2000/svg" viewBox="0 0 448 512"><!--! Font Awesome Pro 6.1.1 by @fontawesome - https://fontawesome.com License - https://fontawesome.com/license (Commercial License) Copyright 2022 Fonticons, Inc. --><path d="M112 160H160V136C160 127.2 167.2 120 176 120C184.8 120 192 127.2 192 136V216C192 224.8 184.8 232 176 232C167.2 232 160 224.8 160 216V192H112C103.2 192 96 184.8 96 176C96 167.2 103.2 160 112 160zM240 160H336C344.8 160 352 167.2 352 176C352 184.8 344.8 192 336 192H240C231.2 192 224 184.8 224 176C224 167.2 231.2 160 240 160zM112 320H224V296C224 287.2 231.2 280 240 280C248.8 280 256 287.2 256 296V376C256 384.8 248.8 392 240 392C231.2 392 224 384.8 224 376V352H112C103.2 352 96 344.8 96 336C96 327.2 103.2 320 112 320zM304 320H336C344.8 320 352 327.2 352 336C352 344.8 344.8 352 336 352H304C295.2 352 288 344.8 288 336C288 327.2 295.2 320 304 320zM0 96C0 60.65 28.65 32 64 32H384C419.3 32 448 60.65 448 96V416C448 451.3 419.3 480 384 480H64C28.65 480 0 451.3 0 416V96zM64 448H384C401.7 448 416 433.7 416 416V96C416 78.33 401.7 64 384 64H64C46.33 64 32 78.33 32 96V416C32 433.7 46.33 448 64 448z"/></svg>
